austria/municipalities/40441.svg

<?xml version="1.0" encoding="UTF-8"?>
<!DOCTYPE svg PUBLIC "-//W3C//DTD SVG 1.1//EN" "http://www.w3.org/Graphics/SVG/1.1/DTD/svg11.dtd">
<svg xmlns="http://www.w3.org/2000/svg" version="1.1" width="166px" height="207px" style="shape-rendering:geometricPrecision; text-rendering:geometricPrecision; image-rendering:optimizeQuality; fill-rule:evenodd; clip-rule:evenodd" xmlns:xlink="http://www.w3.org/1999/xlink">
<g><path style="opacity:1" fill="#000000" d="M -0.5,-0.5 C 54.8333,-0.5 110.167,-0.5 165.5,-0.5C 165.5,43.5 165.5,87.5 165.5,131.5C 158.067,171.269 134.733,196.269 95.5,206.5C 86.8333,206.5 78.1667,206.5 69.5,206.5C 29.8711,196.203 6.53772,170.87 -0.5,130.5C -0.5,86.8333 -0.5,43.1667 -0.5,-0.5 Z"/></g>
<g><path style="opacity:1" fill="#fefffe" d="M 3.5,3.5 C 56.1667,3.5 108.833,3.5 161.5,3.5C 161.667,47.1679 161.5,90.8346 161,134.5C 158.64,146.242 154.306,157.242 148,167.5C 146.033,165.73 143.7,164.73 141,164.5C 134.095,166.58 127.095,168.246 120,169.5C 118.167,169.333 116.333,169.167 114.5,169C 105.617,163.742 96.6168,163.742 87.5,169C 84.1667,169.667 80.8333,169.667 77.5,169C 73.2717,166.468 68.7717,164.635 64,163.5C 57.101,165.372 50.2676,167.372 43.5,169.5C 37.7118,167.09 31.7118,165.09 25.5,163.5C 21.929,163.37 19.0957,164.703 17,167.5C 10.0915,156.442 5.75816,144.442 4,131.5C 3.50001,88.8346 3.33334,46.168 3.5,3.5 Z"/></g>
<g><path style="opacity:1" fill="#000000" d="M 9.5,5.5 C 12.3013,6.73465 14.9679,8.23465 17.5,10C 29.4288,21.5393 40.4288,33.8727 50.5,47C 49.8333,47.3333 49.1667,47.6667 48.5,48C 53.0387,53.3675 57.7054,58.5342 62.5,63.5C 65.2346,61.8749 68.2346,61.2082 71.5,61.5C 71.5824,55.912 74.4157,52.5786 80,51.5C 86.1343,52.0549 90.4676,55.0549 93,60.5C 93.3333,60.1667 93.6667,59.8333 94,59.5C 96.4622,60.6498 98.7955,61.9831 101,63.5C 105.167,58.3333 109.333,53.1667 113.5,48C 112.833,47.6667 112.167,47.3333 111.5,47C 120.422,35.407 130.089,24.407 140.5,14C 144.833,11.1667 149.167,8.33333 153.5,5.5C 152.866,13.9561 149.533,21.4561 143.5,28C 152.314,30.5082 155.814,36.3416 154,45.5C 150.9,50.9485 146.4,54.4485 140.5,56C 144.292,51.3657 145.292,46.199 143.5,40.5C 141.809,38.7438 139.809,38.2438 137.5,39C 131.277,42.2235 126.777,47.0568 124,53.5C 117.803,58.0477 112.303,63.881 107.5,71C 111.531,75.0191 112.864,79.6858 111.5,85C 116.896,89.5284 118.896,95.3618 117.5,102.5C 110.131,99.425 103.798,100.925 98.5,107C 99.4162,107.374 100.25,107.874 101,108.5C 101.333,110.833 101.667,113.167 102,115.5C 103.401,113.808 105.234,113.141 107.5,113.5C 107.25,116.214 107.083,118.881 107,121.5C 116.62,133.242 126.12,145.075 135.5,157C 133.353,159.237 131.02,161.237 128.5,163C 127.551,163.617 126.718,163.451 126,162.5C 116.023,149.689 105.857,137.022 95.5,124.5C 91.8521,121.973 89.1854,122.473 87.5,126C 81.6915,128.488 76.3581,127.821 71.5,124C 69.5,123.333 67.5,123.333 65.5,124C 55.5,136.667 45.5,149.333 35.5,162C 32.0548,160.593 29.0548,158.259 26.5,155C 35.9211,144.665 44.7544,133.832 53,122.5C 51.9057,120.406 51.5723,118.073 52,115.5C 53.925,113.027 55.7583,113.027 57.5,115.5C 58.2686,112.128 59.9352,109.295 62.5,107C 60.695,104.597 58.3616,102.93 55.5,102C 51.9912,102.021 48.8245,101.188 46,99.5C 43.968,92.4127 46.1347,87.246 52.5,84C 49.5461,79.3028 50.2128,75.1361 54.5,71.5C 50.4813,65.4691 45.9813,59.8024 41,54.5C 40.6667,54.8333 40.3333,55.1667 40,55.5C 36.5223,50.7211 32.689,46.2211 28.5,42C 23.9957,39.9348 20.9957,41.4348 19.5,46.5C 20.4568,50.9125 22.7901,54.4125 26.5,57C 13.144,56.9795 7.97736,50.4795 11,37.5C 13.0261,33.9738 15.8595,31.3071 19.5,29.5C 13.9554,22.412 10.622,14.412 9.5,5.5 Z"/></g>
<g><path style="opacity:1" fill="#003265" d="M 11.5,9.5 C 19.0347,14.524 25.868,20.524 32,27.5C 37.233,33.7287 42.0663,40.2287 46.5,47C 44.8154,49.7265 42.482,51.0598 39.5,51C 36.1667,47.3333 32.8333,43.6667 29.5,40C 22.9419,37.5097 18.9419,39.843 17.5,47C 21.9114,56.0513 20.4114,56.8846 13,49.5C 10.1706,39.6526 13.6706,33.4859 23.5,31C 18.0081,24.6726 14.0081,17.5059 11.5,9.5 Z"/></g>
<g><path style="opacity:1" fill="#003266" d="M 149.5,9.5 C 150.376,9.36912 151.043,9.70245 151.5,10.5C 148.591,17.3243 144.924,23.6576 140.5,29.5C 152.579,32.2383 155.413,38.905 149,49.5C 147.815,51.5593 146.648,51.726 145.5,50C 148.849,43.1935 146.849,38.6935 139.5,36.5C 131.885,38.9413 126.218,43.7746 122.5,51C 120.369,50.6017 118.369,49.6017 116.5,48C 115.465,46.4931 115.632,44.9931 117,43.5C 126.739,30.9324 137.572,19.5991 149.5,9.5 Z"/></g>
<g><path style="opacity:1" fill="#cb0000" d="M 46.5,49.5 C 50.8841,53.9057 55.0508,58.5723 59,63.5C 60.2022,65.6775 60.7022,68.0108 60.5,70.5C 59.1266,70.6567 57.7932,70.49 56.5,70C 52.1811,64.0175 47.5144,58.3508 42.5,53C 44.3237,52.34 45.657,51.1733 46.5,49.5 Z"/></g>
<g><path style="opacity:1" fill="#cb0000" d="M 114.5,49.5 C 116.269,50.4214 117.935,51.5881 119.5,53C 115.044,59.1249 110.211,64.9583 105,70.5C 103.164,69.3306 101.998,67.664 101.5,65.5C 105.857,60.1476 110.19,54.8143 114.5,49.5 Z"/></g>
<g><path style="opacity:1" fill="#cb0000" d="M 77.5,54.5 C 82.6914,53.8293 86.858,55.496 90,59.5C 90.1667,60.6667 90.3333,61.8333 90.5,63C 88.0819,73.0887 85.9153,83.2554 84,93.5C 83.3333,95.8333 83.3333,98.1667 84,100.5C 87.3997,88.2933 90.3997,75.96 93,63.5C 96.1817,62.2522 98.515,63.2522 100,66.5C 100.458,69.5576 100.124,72.5576 99,75.5C 95.7246,82.3839 92.7246,89.3839 90,96.5C 88.4749,99.72 87.8083,103.053 88,106.5C 93.0056,94.8105 98.0056,83.1439 103,71.5C 108.446,74.3894 110.612,78.7228 109.5,84.5C 102.784,90.72 96.9511,97.72 92,105.5C 91.3333,106.5 91.3333,107.5 92,108.5C 96.8653,100.295 102.865,92.9619 110,86.5C 114.088,89.819 115.921,94.1523 115.5,99.5C 109.299,97.9662 103.632,99.1329 98.5,103C 94.258,108.649 90.9247,114.816 88.5,121.5C 82.6126,126.952 76.9459,126.618 71.5,120.5C 69.8525,110.668 64.5191,103.834 55.5,100C 52.854,99.5026 50.1873,99.3359 47.5,99.5C 47.9827,83.7309 52.8161,82.3976 62,95.5C 65.2696,101.04 68.2696,106.707 71,112.5C 70.8665,108.203 69.5331,104.203 67,100.5C 62.6602,93.1518 57.8269,86.1518 52.5,79.5C 53.2916,75.5546 55.6249,73.2213 59.5,72.5C 61.5872,75.6728 63.4205,79.0061 65,82.5C 68.0092,91.8842 71.0092,101.218 74,110.5C 71.7341,96.7782 67.9008,83.4449 62.5,70.5C 63.4521,65.5491 66.4521,63.2158 71.5,63.5C 72.2642,77.2831 73.7642,90.9498 76,104.5C 76.4856,90.3565 75.3189,76.3565 72.5,62.5C 72.7266,58.8191 74.3933,56.1524 77.5,54.5 Z"/></g>
<g><path style="opacity:1" fill="#cb0000" d="M 62.5,109.5 C 63.4959,109.414 64.3292,109.748 65,110.5C 66.597,113.791 68.097,117.125 69.5,120.5C 64.0374,121.851 58.704,121.518 53.5,119.5C 53.281,118.325 53.6143,117.325 54.5,116.5C 56.4086,117.348 58.4086,117.682 60.5,117.5C 60.1072,114.487 60.7739,111.82 62.5,109.5 Z"/></g>
<g><path style="opacity:1" fill="#000000" d="M 90.5,109.5 C 91.7733,110.077 91.7733,110.743 90.5,111.5C 89.537,111.03 89.537,110.363 90.5,109.5 Z"/></g>
<g><path style="opacity:1" fill="#cb0000" d="M 96.5,109.5 C 97.5,109.5 98.5,109.5 99.5,109.5C 99.3367,111.857 99.5034,114.19 100,116.5C 101.986,116.968 103.819,116.968 105.5,116.5C 101.733,120.866 97.0661,122.199 91.5,120.5C 92.9795,116.72 94.6461,113.053 96.5,109.5 Z"/></g>
<g><path style="opacity:1" fill="#cb0000" d="M 103.5,121.5 C 104.496,121.414 105.329,121.748 106,122.5C 114.286,133.787 122.952,144.787 132,155.5C 132.617,156.449 132.451,157.282 131.5,158C 130.034,158.635 128.7,159.469 127.5,160.5C 117.643,148.477 107.976,136.311 98.5,124C 100.315,123.243 101.981,122.41 103.5,121.5 Z"/></g>
<g><path style="opacity:1" fill="#cb0000" d="M 55.5,122.5 C 57.1986,122.62 58.8653,122.954 60.5,123.5C 61.9317,123.733 62.4317,124.4 62,125.5C 52.6667,136.833 43.3333,148.167 34,159.5C 32.5,158 31,156.5 29.5,155C 38.5355,144.41 47.2022,133.577 55.5,122.5 Z"/></g>
<g><path style="opacity:1" fill="#fefffe" d="M -0.5,130.5 C 6.53772,170.87 29.8711,196.203 69.5,206.5C 46.1667,206.5 22.8333,206.5 -0.5,206.5C -0.5,181.167 -0.5,155.833 -0.5,130.5 Z"/></g>
<g><path style="opacity:1" fill="#fefffe" d="M 165.5,131.5 C 165.5,156.5 165.5,181.5 165.5,206.5C 142.167,206.5 118.833,206.5 95.5,206.5C 134.733,196.269 158.067,171.269 165.5,131.5 Z"/></g>
<g><path style="opacity:1" fill="#003266" d="M 22.5,165.5 C 28.4998,165.33 33.8332,167.164 38.5,171C 40.1667,171.167 41.8333,171.333 43.5,171.5C 50.4582,170.015 57.2915,168.015 64,165.5C 68.1868,166.677 72.0201,168.511 75.5,171C 77.6667,171.167 79.8333,171.333 82,171.5C 88.7923,170.072 95.6257,168.739 102.5,167.5C 108.552,169.122 114.718,170.456 121,171.5C 127.795,170.459 134.462,168.793 141,166.5C 143.245,167.137 145.412,167.97 147.5,169C 119.391,203.357 85.0575,211.357 44.5,193C 33.7393,187.073 25.0726,178.906 18.5,168.5C 19.9014,167.479 21.2347,166.479 22.5,165.5 Z"/></g>
</svg>

<svg xmlns="http://www.w3.org/2000/svg" width="166" height="207" style="shape-rendering:geometricPrecision;text-rendering:geometricPrecision;image-rendering:optimizeQuality;fill-rule:evenodd;clip-rule:evenodd"><path style="opacity:1" d="M-.5-.5h166v132c-7.433 39.769-30.767 64.769-70 75h-26c-39.629-10.297-62.962-35.63-70-76V-.5z"/><path style="opacity:1" fill="#fefffe" d="M3.5 3.5h158c.167 43.668 0 87.335-.5 131-2.36 11.742-6.694 22.742-13 33-1.967-1.77-4.3-2.77-7-3a183.433 183.433 0 0 1-21 5l-5.5-.5c-8.883-5.258-17.883-5.258-27 0a25.238 25.238 0 0 1-10 0 47.542 47.542 0 0 0-13.5-5.5 538.203 538.203 0 0 0-20.5 6 131.764 131.764 0 0 0-18-6c-3.571-.13-6.404 1.203-8.5 4-6.909-11.058-11.242-23.058-13-36-.5-42.665-.667-85.332-.5-128z"/><path style="opacity:1" d="M9.5 5.5a47.348 47.348 0 0 1 8 4.5 335.795 335.795 0 0 1 33 37l-2 1a316.782 316.782 0 0 0 14 15.5c2.735-1.625 5.735-2.292 9-2 .082-5.588 2.916-8.921 8.5-10 6.134.555 10.468 3.555 13 9l1-1a48.6 48.6 0 0 1 7 4L113.5 48l-2-1a338.706 338.706 0 0 1 29-33l13-8.5c-.634 8.456-3.967 15.956-10 22.5 8.814 2.508 12.314 8.342 10.5 17.5-3.1 5.449-7.6 8.949-13.5 10.5 3.792-4.634 4.792-9.801 3-15.5-1.691-1.756-3.691-2.256-6-1.5-6.223 3.224-10.723 8.057-13.5 14.5-6.197 4.548-11.697 10.381-16.5 17.5 4.031 4.02 5.364 8.686 4 14 5.396 4.528 7.396 10.362 6 17.5-7.369-3.075-13.702-1.575-19 4.5a9.45 9.45 0 0 1 2.5 1.5l1 7c1.401-1.692 3.234-2.359 5.5-2-.25 2.714-.417 5.381-.5 8a2289.743 2289.743 0 0 1 28.5 35.5 47.129 47.129 0 0 1-7 6c-.949.617-1.782.451-2.5-.5a1658.383 1658.383 0 0 0-30.5-38c-3.648-2.527-6.315-2.027-8 1.5-5.808 2.488-11.142 1.821-16-2-2-.667-4-.667-6 0l-30 38c-3.445-1.407-6.445-3.741-9-7A380.65 380.65 0 0 0 53 122.5c-1.094-2.094-1.428-4.427-1-7 1.925-2.473 3.758-2.473 5.5 0 .769-3.372 2.435-6.205 5-8.5-1.805-2.403-4.138-4.07-7-5-3.509.021-6.675-.812-9.5-2.5-2.032-7.087.135-12.254 6.5-15.5-2.954-4.697-2.287-8.864 2-12.5a130.384 130.384 0 0 0-13.5-17l-1 1A116.24 116.24 0 0 0 28.5 42c-4.504-2.065-7.504-.565-9 4.5.957 4.413 3.29 7.913 7 10.5-13.356-.02-18.523-6.52-15.5-19.5 2.026-3.526 4.86-6.193 8.5-8-5.545-7.088-8.878-15.088-10-24z"/><path style="opacity:1" fill="#003265" d="M11.5 9.5c7.535 5.024 14.368 11.024 20.5 18A204.115 204.115 0 0 1 46.5 47c-1.685 2.727-4.018 4.06-7 4l-10-11c-6.558-2.49-10.558-.157-12 7 4.411 9.051 2.911 9.885-4.5 2.5-2.83-9.847.67-16.014 10.5-18.5-5.492-6.327-9.492-13.494-12-21.5z"/><path style="opacity:1" fill="#003266" d="M149.5 9.5c.876-.13 1.543.202 2 1a89.444 89.444 0 0 1-11 19c12.079 2.738 14.913 9.405 8.5 20-1.185 2.06-2.352 2.226-3.5.5 3.349-6.806 1.349-11.306-6-13.5-7.615 2.441-13.282 7.275-17 14.5-2.131-.398-4.131-1.398-6-3-1.035-1.507-.868-3.007.5-4.5 9.739-12.568 20.572-23.9 32.5-34z"/><path style="opacity:1" fill="#cb0000" d="M46.5 49.5a174.833 174.833 0 0 1 12.5 14c1.202 2.177 1.702 4.51 1.5 7a8.434 8.434 0 0 1-4-.5 172.445 172.445 0 0 0-14-17c1.824-.66 3.157-1.827 4-3.5zM114.5 49.5a24.025 24.025 0 0 1 5 3.5A180.75 180.75 0 0 1 105 70.5c-1.836-1.17-3.002-2.836-3.5-5 4.357-5.352 8.69-10.686 13-16z"/><path style="opacity:1" fill="#cb0000" d="M77.5 54.5c5.191-.67 9.358.996 12.5 5l.5 3.5A618.44 618.44 0 0 0 84 93.5a12.5 12.5 0 0 0 0 7c3.4-12.207 6.4-24.54 9-37 3.182-1.248 5.515-.248 7 3 .458 3.058.124 6.058-1 9a291.212 291.212 0 0 0-9 21c-1.525 3.22-2.192 6.553-2 10 5.006-11.69 10.006-23.356 15-35 5.446 2.89 7.612 7.223 6.5 13a106.23 106.23 0 0 0-17.5 21c-.667 1-.667 2 0 3 4.865-8.205 10.865-15.538 18-22 4.088 3.319 5.921 7.652 5.5 13-6.201-1.534-11.868-.367-17 3.5a70.897 70.897 0 0 0-10 18.5c-5.887 5.452-11.554 5.118-17-1-1.647-9.832-6.98-16.666-16-20.5a32.437 32.437 0 0 0-8-.5c.483-15.77 5.316-17.102 14.5-4 3.27 5.54 6.27 11.207 9 17-.133-4.297-1.467-8.297-4-12a179.936 179.936 0 0 0-14.5-21c.792-3.945 3.125-6.279 7-7a72.522 72.522 0 0 1 5.5 10c3.01 9.384 6.01 18.718 9 28-2.266-13.722-6.1-27.055-11.5-40 .952-4.95 3.952-7.284 9-7a381.325 381.325 0 0 0 4.5 41 179.126 179.126 0 0 0-3.5-42c.227-3.68 1.893-6.348 5-8z"/><path style="opacity:1" fill="#cb0000" d="M62.5 109.5c.996-.086 1.83.248 2.5 1a189.663 189.663 0 0 1 4.5 10c-5.463 1.351-10.796 1.018-16-1-.219-1.175.114-2.175 1-3a11.987 11.987 0 0 0 6 1c-.393-3.013.274-5.68 2-8z"/><path style="opacity:1" d="M90.5 109.5c1.273.577 1.273 1.243 0 2-.963-.47-.963-1.137 0-2z"/><path style="opacity:1" fill="#cb0000" d="M96.5 109.5h3c-.163 2.357.003 4.69.5 7 1.986.468 3.819.468 5.5 0-3.767 4.366-8.434 5.699-14 4 1.48-3.78 3.146-7.447 5-11zM103.5 121.5c.996-.086 1.829.248 2.5 1a617.024 617.024 0 0 0 26 33c.617.949.451 1.782-.5 2.5a15.645 15.645 0 0 0-4 2.5 1517.305 1517.305 0 0 1-29-36.5 38.715 38.715 0 0 0 5-2.5zM55.5 122.5c1.699.12 3.365.454 5 1 1.432.233 1.932.9 1.5 2l-28 34-4.5-4.5a656.115 656.115 0 0 0 26-32.5z"/><path style="opacity:1" fill="#fefffe" d="M-.5 130.5c7.038 40.37 30.371 65.703 70 76h-70v-76zM165.5 131.5v75h-70c39.233-10.231 62.567-35.231 70-75z"/><path style="opacity:1" fill="#003266" d="M22.5 165.5c6-.17 11.333 1.664 16 5.5l5 .5a143.853 143.853 0 0 0 20.5-6 36.666 36.666 0 0 1 11.5 5.5l6.5.5a722.763 722.763 0 0 1 20.5-4 194.744 194.744 0 0 0 18.5 4 111.18 111.18 0 0 0 20-5 38.284 38.284 0 0 1 6.5 2.5c-28.109 34.357-62.442 42.357-103 24-10.76-5.927-19.427-14.094-26-24.5a173.333 173.333 0 0 0 4-3z"/></svg>
